public/client3.svg

<svg width="106" height="60" viewBox="0 0 106 60" fill="none" xmlns="http://www.w3.org/2000/svg">
<path d="M38.3457 50.7946C38.3607 50.795 38.3755 50.7982 38.3891 50.8041C38.4028 50.81 38.4152 50.8184 38.4254 50.8289L38.6312 51.0446C38.4714 51.2191 38.274 51.3588 38.0524 51.4539C37.7929 51.5577 37.5133 51.6078 37.2319 51.6009C36.9675 51.6061 36.7049 51.5594 36.4603 51.4637C36.2396 51.3758 36.0414 51.2437 35.879 51.0764C35.7132 50.9029 35.5855 50.6996 35.5034 50.4784C35.4135 50.2318 35.3692 49.9723 35.3723 49.7113C35.3686 49.4486 35.4166 49.1875 35.5137 48.9417C35.6036 48.7191 35.7391 48.5158 35.9124 48.3436C36.0881 48.1749 36.2982 48.0423 36.5297 47.9539C36.7831 47.8604 37.0528 47.8138 37.3245 47.8167C37.5769 47.8108 37.8279 47.8534 38.0627 47.9417C38.2664 48.0259 38.4535 48.1428 38.6157 48.2873L38.4434 48.5177C38.4315 48.5339 38.4167 48.548 38.3997 48.5593C38.3793 48.5726 38.3548 48.5787 38.3302 48.5765C38.3035 48.5747 38.2778 48.5663 38.2556 48.552L38.163 48.4907L38.0344 48.4123C37.9789 48.3832 37.9213 48.3578 37.8621 48.3363C37.7858 48.3103 37.7076 48.2898 37.628 48.275C37.5271 48.2573 37.4246 48.2491 37.3219 48.2505C37.1263 48.2482 36.9322 48.2832 36.7509 48.3534C36.5819 48.4185 36.4294 48.5171 36.3034 48.6427C36.1751 48.7762 36.0763 48.9329 36.0127 49.1034C35.9403 49.2985 35.9046 49.5043 35.9073 49.7113C35.9042 49.9214 35.9399 50.1305 36.0127 50.3289C36.0755 50.498 36.1725 50.6537 36.2982 50.7872C36.416 50.9117 36.5621 51.0089 36.7252 51.0715C36.8931 51.1379 37.0733 51.1712 37.2551 51.1696C37.3601 51.1711 37.465 51.1646 37.5689 51.15C37.7385 51.1302 37.9012 51.0741 38.0447 50.9858C38.1167 50.9405 38.1847 50.8897 38.2479 50.8338C38.2744 50.8098 38.3091 50.7958 38.3457 50.7946Z" fill="#AFB1B8"/>
<path d="M44.2871 49.7108C44.2903 49.9709 44.2432 50.2292 44.1482 50.473C44.0644 50.6941 43.9323 50.8958 43.7608 51.0648C43.5892 51.2338 43.382 51.3662 43.1528 51.4533C42.6492 51.6363 42.0925 51.6363 41.589 51.4533C41.3613 51.3648 41.1554 51.2321 40.9845 51.0636C40.8131 50.8916 40.68 50.6882 40.5936 50.4657C40.4083 49.972 40.4083 49.4325 40.5936 48.9388C40.6813 48.7162 40.8141 48.5122 40.9845 48.3384C41.1568 48.1752 41.3626 48.0476 41.589 47.9635C42.0919 47.7772 42.6499 47.7772 43.1528 47.9635C43.3813 48.0519 43.588 48.1846 43.7598 48.3531C43.9292 48.5235 44.0612 48.7243 44.1482 48.9437C44.2435 49.1892 44.2906 49.4492 44.2871 49.7108ZM43.747 49.7108C43.751 49.5028 43.718 49.2956 43.6492 49.0981C43.5916 48.929 43.4979 48.7729 43.374 48.6399C43.2534 48.5139 43.1049 48.4152 42.9393 48.3507C42.5734 48.2167 42.1684 48.2167 41.8024 48.3507C41.6368 48.4152 41.4884 48.5139 41.3678 48.6399C41.2422 48.7722 41.1475 48.9284 41.09 49.0981C40.9591 49.4971 40.9591 49.9246 41.09 50.3235C41.148 50.4931 41.2427 50.6492 41.3678 50.7818C41.4885 50.907 41.637 51.0049 41.8024 51.0685C42.169 51.1991 42.5728 51.1991 42.9393 51.0685C43.1048 51.0049 43.2533 50.907 43.374 50.7818C43.4974 50.6484 43.591 50.4925 43.6492 50.3235C43.7183 50.1261 43.7513 49.9189 43.747 49.7108Z" fill="#AFB1B8"/>
<path d="M48.3408 50.3532L48.3948 50.4904C48.4154 50.4414 48.4334 50.3973 48.4539 50.3532C48.4736 50.3071 48.4959 50.2621 48.5208 50.2184L49.8352 47.942C49.8609 47.9028 49.884 47.8783 49.9098 47.8709C49.9447 47.8608 49.9813 47.8566 50.0178 47.8587H50.4062V51.5613H49.9458V48.8388C49.9458 48.8045 49.9458 48.7653 49.9458 48.7237C49.9433 48.6812 49.9433 48.6387 49.9458 48.5962L48.6237 50.9046C48.6069 50.9391 48.58 50.9684 48.5463 50.9888C48.5125 51.0092 48.4733 51.02 48.4334 51.0197H48.3588C48.3187 51.0203 48.2794 51.0097 48.2456 50.9892C48.2118 50.9687 48.185 50.9393 48.1684 50.9046L46.8078 48.5815C46.8078 48.6256 46.8078 48.6698 46.8078 48.7139C46.8078 48.758 46.8078 48.7972 46.8078 48.8315V51.5539H46.3628V47.8587H46.7512C46.7877 47.8566 46.8243 47.8608 46.8592 47.8709C46.8911 47.886 46.9165 47.9111 46.9312 47.942L48.2739 50.2209C48.3003 50.263 48.3227 50.3073 48.3408 50.3532Z" fill="#AFB1B8"/>
<path d="M53.2869 50.1692V51.5562H52.7725V47.8585H53.9196C54.1362 47.8546 54.3521 47.8818 54.5601 47.9394C54.7266 47.9843 54.881 48.0629 55.0128 48.1697C55.127 48.2699 55.2151 48.394 55.27 48.5324C55.3307 48.6832 55.3604 48.8438 55.3575 49.0053C55.3597 49.1675 55.3274 49.3284 55.2623 49.4782C55.2005 49.6201 55.1054 49.7466 54.9845 49.8482C54.8525 49.9595 54.6974 50.043 54.5292 50.0933C54.329 50.1542 54.1195 50.1832 53.9093 50.179L53.2869 50.1692ZM53.2869 49.7723H53.9093C54.0446 49.7739 54.1792 49.7549 54.308 49.7159C54.4143 49.6818 54.5123 49.6277 54.5961 49.5566C54.6734 49.4888 54.7332 49.405 54.771 49.3116C54.8131 49.2128 54.8341 49.107 54.8327 49.0004C54.8387 48.8976 54.8211 48.7948 54.7811 48.6992C54.7412 48.6035 54.6798 48.5174 54.6013 48.4466C54.4047 48.3004 54.1579 48.2296 53.9093 48.2481H53.2869V49.7723Z" fill="#AFB1B8"/>
<path d="M60.2007 51.5612H59.7943C59.7536 51.5626 59.7135 51.5505 59.6812 51.5268C59.652 51.5038 59.6291 51.4744 59.6143 51.4411L59.2645 50.5466H57.5077L57.145 51.4411C57.1317 51.4738 57.1095 51.5025 57.0807 51.5244C57.048 51.5495 57.007 51.5625 56.965 51.5612H56.5586L58.1019 47.8582H58.6369L60.2007 51.5612ZM57.6543 50.1863H59.105L58.4928 48.6791C58.4461 48.5658 58.4074 48.4495 58.3771 48.3311L58.3179 48.5247C58.2999 48.5836 58.2794 48.6375 58.2614 48.6816L57.6543 50.1863Z" fill="#AFB1B8"/>
<path d="M62.4233 47.8754C62.4541 47.8915 62.4805 47.9141 62.5005 47.9416L64.7511 50.7329C64.7511 50.6887 64.7511 50.6446 64.7511 50.603C64.7511 50.5613 64.7511 50.5197 64.7511 50.4804V47.8582H65.2115V51.5612H64.9543C64.9178 51.5622 64.8816 51.5547 64.8489 51.5391C64.8171 51.5215 64.7892 51.4982 64.7666 51.4705L62.5185 48.6817C62.521 48.7241 62.521 48.7666 62.5185 48.8091C62.5185 48.8508 62.5185 48.8875 62.5185 48.9218V51.5612H62.0581V47.8582H62.3308C62.3626 47.8574 62.3942 47.8632 62.4233 47.8754Z" fill="#AFB1B8"/>
<path d="M69.0028 50.0884V51.5588H68.4883V50.0884L67.0659 47.8584H67.5263C67.566 47.8561 67.6052 47.8674 67.6369 47.8902C67.6649 47.914 67.6884 47.9422 67.7064 47.9735L68.5964 49.4121C68.6324 49.4733 68.6632 49.5297 68.689 49.5836C68.7147 49.6375 68.7353 49.689 68.7533 49.7405L68.8201 49.5812C68.8451 49.5229 68.8743 49.4664 68.9076 49.4121L69.7847 47.9637C69.8031 47.9348 69.8256 47.9084 69.8516 47.8853C69.8821 47.8599 69.9217 47.8467 69.9622 47.8486H70.4277L69.0028 50.0884Z" fill="#AFB1B8"/>
<path d="M48.0859 41.6443C48.3097 41.6712 48.5361 41.6933 48.765 41.7129C52.2356 40.2337 55.1716 37.8127 57.206 34.7526C59.2404 31.6924 60.283 28.1289 60.2033 24.5073L56.3785 20.8633C57.1562 24.7191 56.7925 28.705 55.3279 32.3751C53.8634 36.0452 51.3559 39.2546 48.0859 41.6443Z" fill="#AFB1B8"/>
<path d="M46.7202 41.4748L46.8231 41.4944C50.3173 39.1132 52.9814 35.788 54.4708 31.9488C55.9601 28.1097 56.2063 23.9331 55.1774 19.9592L49.7296 14.769C51.9331 19.0353 52.82 23.8098 52.2873 28.5374C51.7546 33.265 49.824 37.7514 46.7202 41.4748Z" fill="#AFB1B8"/>
<path d="M65.1959 28.7861C64.2704 32.7654 62.0225 36.3541 58.7861 39.0196C57.841 39.8023 56.8214 40.4996 55.7407 41.1025C58.3761 40.3646 60.7983 39.0598 62.8207 37.289C64.8432 35.5181 66.4117 33.3284 67.4054 30.8887L65.1959 28.7861Z" fill="#AFB1B8"/>
<path d="M64.3292 28.2002L61.1835 25.2031C61.1233 28.6201 60.1037 31.9594 58.2306 34.8739C56.3575 37.7885 53.6993 40.1718 50.5322 41.7764H50.5477C51.2534 41.7761 51.9586 41.736 52.6594 41.6563C55.6192 40.5053 58.2339 38.6742 60.2702 36.3262C62.3064 33.9782 63.7009 31.1865 64.3292 28.2002Z" fill="#AFB1B8"/>
<path d="M47.1757 12.5803L43.4229 9C40.0681 10.2351 37.1828 12.4064 35.1446 15.2297C33.1065 18.053 32.0105 21.3968 32 24.8234V24.8234C32.0126 28.6097 33.3502 32.2838 35.8012 35.2643C38.2521 38.2448 41.6764 40.3614 45.5321 41.2791C48.974 37.2838 50.9892 32.347 51.2847 27.186C51.5803 22.025 50.1409 16.9086 47.1757 12.5803Z" fill="#AFB1B8"/>
<path d="M73.0002 27.649C72.9867 23.1568 71.1076 18.8522 67.7735 15.6757C64.4394 12.4992 59.9213 10.709 55.2062 10.6961C53.0274 10.6939 50.8671 11.077 48.835 11.8258L71.8119 33.7166C72.5987 31.7815 73.0016 29.7241 73.0002 27.649Z" fill="#AFB1B8"/>
</svg>

<svg xmlns="http://www.w3.org/2000/svg" width="106" height="60" fill="none"><path fill="#AFB1B8" d="M38.346 50.795a.117.117 0 0 1 .08.034l.205.216c-.16.174-.357.314-.579.409-.26.104-.539.154-.82.147a2.01 2.01 0 0 1-.772-.137 1.671 1.671 0 0 1-.957-.986 2.163 2.163 0 0 1-.13-.767 2.016 2.016 0 0 1 .14-.77c.09-.222.226-.425.4-.597.175-.17.385-.302.617-.39.253-.094.523-.14.794-.137.253-.006.504.036.739.125.203.084.39.2.553.345l-.173.23a.173.173 0 0 1-.043.042.11.11 0 0 1-.07.018.157.157 0 0 1-.074-.025l-.093-.061-.129-.079a1.401 1.401 0 0 0-.406-.137 1.642 1.642 0 0 0-.306-.024 1.533 1.533 0 0 0-.571.102 1.29 1.29 0 0 0-.448.29c-.128.133-.227.29-.29.46-.073.195-.108.401-.106.608-.003.21.033.42.106.618.063.169.16.325.285.458.118.125.264.222.427.285.168.066.348.1.53.098.105.001.21-.005.314-.02.17-.02.332-.076.476-.164.072-.045.14-.096.203-.152a.153.153 0 0 1 .098-.04ZM44.287 49.71c.003.26-.044.52-.139.763a1.655 1.655 0 0 1-.387.592 1.754 1.754 0 0 1-.608.388 2.296 2.296 0 0 1-1.564 0 1.778 1.778 0 0 1-.605-.39 1.74 1.74 0 0 1-.39-.597 2.166 2.166 0 0 1 0-1.527c.087-.223.22-.427.39-.6a1.78 1.78 0 0 1 .605-.375 2.258 2.258 0 0 1 1.564 0c.228.088.435.22.607.39.17.17.301.37.388.59.095.245.143.505.14.767Zm-.54 0a1.759 1.759 0 0 0-.098-.612 1.208 1.208 0 0 0-.71-.747 1.658 1.658 0 0 0-1.137 0 1.207 1.207 0 0 0-.712.747c-.13.4-.13.827 0 1.226a1.203 1.203 0 0 0 .712.745c.367.13.77.13 1.137 0 .166-.064.314-.162.435-.287.123-.134.217-.29.275-.458.07-.198.102-.405.098-.613ZM48.34 50.353l.055.137c.02-.049.038-.093.059-.137a1.32 1.32 0 0 1 .067-.135l1.314-2.276c.026-.04.049-.064.075-.071a.322.322 0 0 1 .108-.012h.388v3.702h-.46v-2.837a1.085 1.085 0 0 1 0-.128l-1.322 2.309a.202.202 0 0 1-.078.084.216.216 0 0 1-.113.03h-.074c-.04.001-.08-.01-.113-.03a.2.2 0 0 1-.078-.084l-1.36-2.324v2.973h-.445v-3.695h.388a.322.322 0 0 1 .108.012.15.15 0 0 1 .072.071l1.343 2.279a.805.805 0 0 1 .067.132ZM53.287 50.17v1.386h-.514V47.86h1.147a2.25 2.25 0 0 1 .64.08c.167.045.321.124.453.23.114.1.202.225.257.363.06.151.09.312.087.473.003.162-.03.323-.095.473a1.012 1.012 0 0 1-.278.37 1.27 1.27 0 0 1-.455.245c-.2.061-.41.09-.62.086l-.622-.01Zm0-.398h.622c.136.002.27-.017.399-.056a.843.843 0 0 0 .288-.16.651.651 0 0 0 .175-.244.768.768 0 0 0 .062-.312.677.677 0 0 0-.052-.3.707.707 0 0 0-.18-.253 1.033 1.033 0 0 0-.692-.199h-.622v1.524ZM60.2 51.561h-.406a.181.181 0 0 1-.113-.034.226.226 0 0 1-.067-.086l-.35-.894h-1.756l-.363.894a.2.2 0 0 1-.064.083.18.18 0 0 1-.116.037h-.406l1.543-3.703h.535l1.564 3.703Zm-2.546-1.375h1.451l-.612-1.507a2.614 2.614 0 0 1-.116-.348l-.06.194a1.842 1.842 0 0 1-.056.157l-.607 1.504ZM62.423 47.875c.031.017.057.04.078.067l2.25 2.79V47.859h.46v3.703h-.257a.23.23 0 0 1-.105-.022.283.283 0 0 1-.082-.069l-2.248-2.788c.002.042.002.085 0 .127v2.753h-.46v-3.704h.272c.032 0 .063.005.092.017ZM69.003 50.088v1.47h-.515v-1.47l-1.422-2.23h.46a.173.173 0 0 1 .11.032.317.317 0 0 1 .07.084l.89 1.438a1.542 1.542 0 0 1 .157.328l.067-.159c.025-.058.054-.115.088-.169l.877-1.448a.373.373 0 0 1 .067-.079.161.161 0 0 1 .11-.036h.466l-1.425 2.24ZM48.086 41.644c.224.027.45.05.679.069 3.47-1.48 6.407-3.9 8.441-6.96 2.034-3.06 3.077-6.624 2.997-10.246l-3.825-3.644a20.22 20.22 0 0 1-1.05 11.512c-1.465 3.67-3.972 6.88-7.242 9.27Z"/><path fill="#AFB1B8" d="m46.72 41.475.103.02c3.494-2.382 6.158-5.707 7.648-9.546a19.54 19.54 0 0 0 .706-11.99l-5.447-5.19a24.082 24.082 0 0 1 2.557 13.768c-.532 4.728-2.463 9.214-5.567 12.938ZM65.196 28.786c-.926 3.98-3.173 7.568-6.41 10.234a20.213 20.213 0 0 1-3.045 2.082 18.187 18.187 0 0 0 7.08-3.813 17.084 17.084 0 0 0 4.584-6.4l-2.21-2.103Z"/><path fill="#AFB1B8" d="m64.33 28.2-3.146-2.997a18.475 18.475 0 0 1-2.953 9.67c-1.873 2.916-4.532 5.299-7.699 6.903h.016c.705 0 1.41-.04 2.111-.12a19.338 19.338 0 0 0 7.611-5.33 18.093 18.093 0 0 0 4.06-8.126ZM47.176 12.58 43.423 9c-3.355 1.235-6.24 3.406-8.278 6.23-2.039 2.823-3.135 6.167-3.145 9.593.013 3.787 1.35 7.46 3.801 10.441 2.451 2.98 5.875 5.097 9.731 6.015 3.442-3.995 5.457-8.932 5.753-14.093.295-5.161-1.144-10.277-4.11-14.606ZM73 27.649c-.013-4.492-1.892-8.797-5.227-11.973-3.334-3.177-7.852-4.967-12.567-4.98-2.179-.002-4.339.381-6.371 1.13l22.977 21.89A16.07 16.07 0 0 0 73 27.65Z"/></svg>
